actions/24/view-calendar-journal.svg

<svg xmlns="http://www.w3.org/2000/svg" viewBox="0 0 24 24" width="24" height="24">
  <defs id="defs3051">
    <style type="text/css" id="current-color-scheme">
      .ColorScheme-Text {
        color:#eff0f1;
      }
      </style>
  </defs>
  <g transform="translate(1,1)">
    <path style="fill:currentColor;fill-opacity:1;stroke:none" d="M 2 3 L 2 4 L 2 19 L 3 19 L 16 19 L 16 18 L 16 3 L 3 3 L 2 3 z M 12 4 L 14 4 L 14 18 L 12 18 L 12 4 z M 17 9 L 17 10 L 17 11 L 17 12 L 17 17 L 17 17.414062 L 18.410156 18.824219 L 18.410156 18.996094 L 18.414062 19 L 18.5 18.914062 L 18.585938 19 L 18.589844 18.996094 L 18.589844 18.824219 L 20 17.414062 L 20 16 L 20 12 L 20 11 L 20 10 L 20 9 L 17 9 z M 18 10 L 19 10 L 19 11 L 18 11 L 18 10 z M 18 12 L 19 12 L 19 17 L 18.5 17.5 L 18 17 L 18 12 z " class="ColorScheme-Text"/>
  </g>
</svg>

<svg xmlns="http://www.w3.org/2000/svg" viewBox="0 0 24 24" width="24" height="24">
  <defs id="defs3051">
    <style type="text/css" id="current-color-scheme">.ColorScheme-Text {color:#fcfcfc;}</style>
  </defs>
  <g transform="translate(1,1)">
    <path style="fill:currentColor;fill-opacity:1;stroke:none" d="m 2,6 c 0,3 0,7 0,10 0,3 3,3 3,3 h 8 c 0,0 3,0 3,-3 C 16,13 16,9 16,6 16,3 13,3 13,3 H 5 C 5,3 2,3 2,6 Z M 12,4 h 2 v 14 h -2 z m 5,5 v 1 1 1 5 0.414062 l 1.410156,1.410157 v 0.171875 L 18.414062,19 18.5,18.914062 18.585938,19 l 0.0039,-0.0039 V 18.824219 L 20,17.414062 V 16 12 11 10 9 Z m 1,1 h 1 v 1 h -1 z m 0,2 h 1 v 5 L 18.5,17.5 18,17 Z" class="ColorScheme-Text"/>
  </g>
</svg>
